X:59
T:Rural Grove. THO5.059, The
M:9/8
L:1/8
B:Thompson's Complete Collection of 200 Favourite Dances Vol.5
F:https://www.libraryofdance.org/manuals/1780c-Thompson-Compleat-5.pdf
Z:vmp. Peter Dunk 2024
Q:3/8=110
K:G
G2G BAB dBG|A>BA c2d e2g|G>AG B2c dBG|e2e eag Tf2g:|
|:T(gfg) T(gfg) afd|gfg agf e2d|BGB d2d e2f|gfe dgB A2G:|
|:BGB BGB c2e|BGB BGB A2c|BGB BGB d2g-|gfe dgB A2G:|
W:
W:Hey contrary sides ./.
W:Hey on your own sides ./:
W:Cross over two Couples :/.
W:Lead up to the top and cast off :/:
W:Hands around at bottom ./:.
W:Right and Left :,/:

